X: 15391
T: Glass Of Beer, The
R: reel
M: 4/4
K: Bminor
|:fB~B2 fBaB|fB~B2 e2de|fB~B2 fgfe|1 dfaf e2 de:|2 dfaf efdB||
|:d3e f2fe|defd edBA|dcde fgfe|1 dfaf efdB:|2 dfaf e4||

